!!!COM: Robert Schumann
!!!CNT: Deutsch
!!!TXO: Deutsch
!!!OTL: Liebesbotschaft
!!!LYR: Reinick
!!!OPR: Sechs Gedichte
!!!OPS: Op.36
!!!ONM: No. 6
!!!ENC: Ben Fuhrman
!!!YOR: Schumann Lieder - Max Friedlaender, ed.,
!!!YOR: New York: C. F. Peters, Vol. 2
!!!ODT: 1840/
!!NB: Vocal melody and text only encoded.
!!NB: First instance of melodic material only encoded.
**kern	**silbe
*clefG2	*
*k[b-e-a-]	*
*M4/4	*
!!created:
!!proofed and posted:
!!edit time:
=1	=1
{4.g	{Wol-
8a-	-ken,
4b-	die
8cc	ihr
8dd	nach
=2	=2
4.e-	O-
8cc	-sten
4b-	eilt,
8cc	wo
8g	die
=3	=3
4a-	Ei-
8b-	-ne,
8f#	die
4g	Mei-
8fn	-ne,
8e-	die
=4	=4
4.d	Ei-
8c	-ne
4B-}	weilt,}
4r	.
=5	=5
{4g	{all
8g	mei-
8a-	-ne
4b-	Wu2n-
8cc	-sche,
8dd	mein
=6	=6
4ee-	Hof-
8ee-	-fen
8cc	und
(4b-	Sin
8cc)	|
8g	-gen
=7	=7
4a-	sol-
8b-	-len
8f#	auf
(4g	eu-
8fn)	|
8e-	-re
=8	=8
4d	Flu2-
8g	-gel
8g	sich
8B-	schwin-
8B-}	-gen,}
4r	.
!! rest to measure 11
=11	=11
{4d-	sol-
8.b-	-len
16a-	euch,
4a-	Flu2ch-
8.g	-ti-
16f	-ge,
=12	=12
(4f	zu
8.e-)	|
16d-	ihr
4d-	len-
4c}	-ken,}
!! rest to measure 14
=14	=14
2r	.
4r	.
{8.f	{dass
16f	die
=15	=15
4f	Zu2ch-
8.ddn	-ti-
16cc	-ge
4cc	mei-
8.b-	-ner
16an	in
=16	=16
8.an	Treu-
16an	-en
8.g	mag
16f	ge-
4e-	-den-
4d	-ken.
=17	=17
4g	Sin-
8g	-gen
8a-	noch
(4b-	Mor-
8cc)	|
8dd	-gen
=18	=18
4ee-	tra2u-
8ee-	-me
8cc	sie
4b-}	ein,}
4r	.
=19	=19
4r	.
{8b-	{schwe-
8f#	-bet
4g	lei-
8fn	-se
8e-	zum
=20	=20
4d	Gar-
8c	-ten
8c	hin-
4B-}	-ein,]
4r	.
=21	=21
{4g	{sen-
8g	-ket
8a-	als
4b-	Tau
8cc	euch
8dd	in
=22	=22
4ee-	schat-
8ee-	-ti-
8cc	-ge
(4b-	Ra2u-
8cc)	|
8g	-me,
=23	=23
(4a-	streu-
8b-)	|
8f#	-et
4g	Per-
8fn	-len
8e-	auf
=24	=24
4d	Blu-
8d	-men
8c	und
8B-	Ba2u-
8B-}	-me,}
4r	.
!! rest to measure 27
=27	=27
{4d-	{dass
8.b-	der
16a-	Hold-
4a-	-se
8.g	-li-
16f	-gen,
=28	=28
4f	kommt
8.e-	sie
16d-	ge-
4d-	-gan-
4c}	-gen,}
!! rest to measure 30
=30	=30
2r	.
4r	.
{8.f	{all
16f	die
=31	=31
4f	fro2h-
8.ff	-li-
16ee-	-chen
4ee-	Blu2-
8.dd	-ten
16cc	sich
=32	=32
4cc	o2ff-
8.b-	-nen
16a-	mit
4a-	lich-
8.g	-te-
16f#	-rem
=33	=33
8f#	Pran-
8g}	-gen.}
4r	.
2r	.
=34	=34
8r	.
{4g	{Und
8a-	am
4b-	A-
8cc	-bend
8dd	in
=35	=35
4.ee-	stil-
8cc	-ler
4b-}	Ruh'}
4r	.
=36	=36
{4a-	{brei-
8b-	-tet
8f#	der
4g	sin-
8fn	-ken-
8e-	-den
=37	=37
4d	Son-
8d	-ne
8c	euch
4B-}	zu,}
4r	.
=38	=38
{4.g	{mo2gt
8a-	mit
4b-	Pur-
8cc	-pur
8dd	und
=39	=39
4.ee-	Gold
8cc	euch
(4b-	ma-
8cc)	|
8g	-len,
=40	=40
4a-	mo2gt
8b-	in
8f#	dem
4g	Mee-
8fn	-re
8e-	von
=41	=41
4d	Glu-
8c	-ten
8c	und
8B-	Strah-
8B-}	-len}
4r	.
=42	=42
{(4d-	{leicht
8.b-)	|
16a-	sich
4a-	schwin-
8.g	-gen
16f	de
=43	=43
(4f	Schiff
8.e-)	|
16d-	-lein
4d-	fah-
4c}	-ren,}
!! rest to measure 45
=45	=45
2r	.
4r	.
{8.f	{dass
16f	sie
=46	=46
4f	sin-
8.ddn	-gen-
16cc	-de
8.cc	En-
16cc	-gel
8.b-	glaubt
16an	auf
=47	=47
4an	euch
8.g	zu
16f	ge-
4e-	-wah-
4d}	-ren.}
=48	=48
4r	.
{8.B-	{Ja,
16B-	wohl
4B-	mo2ch-
8.a-	-ten
16g	es
=49	=49
4.f	En-
8f	-gel
4f	sein,
8ee-	wa2r'
8dd	mein
=50	=50
4.cc	Herz
8g	gleich
4a-	ih-
8en	-rem,
8en	gleich
=51	=51
(4fS	ih-
8g)	|
8e-	-rem
4f}	rein;}
4r	.
=52	=52
{4B-	{all
8.a-	mei-
16g	-ne
4g	-Wu2n-
8.f	-sche,
16e-	mein
=53	=53
4d-	Hof-
8.cc	-fen
16bn	und
4.bn	Sin-
8bn	-gen
=54	=54
4cc	zieht
8.g	ja
16g	da-
4.a-	-hin
8en	auf
=55	=55
(4f	eu-
8g)	|
8e-	-ren
8g	Schwin-
8f}	-gen,}
4r	.
=56	=56
{4.g	{euch,
8a-	ihr
4b-	Flu2ch-
8cc	-ti-
8dd	-gen,
=57	=57
4.ee-	hin-
8cc	-zu-
(4b-	-len-
8cc)	|
8dd-	-ken,
=58	=58
4.cc	euch,
8dd-	ihr
4ee-	Flu2ch-
8dd-	-ti-
8dd-	-gen,
=59	=59
4.cc	hin-
8dd-	-zu-
8cc	-len-
8ee-	-ken
8ddn	zu
8cc	der
=60	=60
8.b-	Zu2ch-
16b-	-ti-
4b-	-gen,
8r	.
(8b-	zu
8a-)	|
8g	der
=61	=61
8.f	Zu2ch-
16f	-ti-
2f	-gen,
8cc	der
8cc	ich
=62	=62
4b-	ein-
4g	-zig
8r	.
8f	nur
8.a-	mag
16a-	ge-
=63	=63
4a-	-den-
4g}	-ken,}
4r	.
{8cc	{der
8cc	ich
=64	=64
4b-	ein-
8e-	-zig
8e-	nur
4.a-	mag
8d	ge-
=65	=65
8f	-den-
8e-}	-ken.}
4r	.
2r	.
==	==
*-	*-
